X: 2
T: The Gaelic Club
R: jig
M: 6/8
L: 1/8
K: Bmin
dcB BAF | B^AB B/c/dB | cBA ceA | cea ecA |dcB BAF | B2 B dfa | f/g/af edc | dB^A B2 :|dfa dfa | df/g/a fed | cAe ceA | cea ecA |dcB BAF | B2 B dfa | faf edc | dB^A B2 :||: dcB BAF | B2 B Bcd | cBA ceA | cea cBA |dcB BAF | B2 B dfa | faf edc |1 dBB B2F :||2 dBB B2d |||: dfa dfa | dfa fed | ceA ceA | cea cBA |dcB BAF | B2 B dfa | faf edc |1 dBB B2d :|2 dBB B2F ||


Tune 782	Setting 782

